svgs/regular/square-r.svg

<svg xmlns="http://www.w3.org/2000/svg" viewBox="0 0 448 512"><!--! Font Awesome Pro 6.0.0-alpha3 by @fontawesome - https://fontawesome.com License - https://fontawesome.com/license (Commercial License) --><path d="M384 32H64C28.65 32 0 60.65 0 96v320c0 35.35 28.65 64 64 64h320c35.35 0 64-28.65 64-64V96C448 60.65 419.3 32 384 32zM400 416c0 8.822-7.178 16-16 16H64c-8.822 0-16-7.178-16-16V96c0-8.822 7.178-16 16-16h320c8.822 0 16 7.178 16 16V416zM336 208C336 163.9 300.1 128 256 128H152C138.8 128 128 138.8 128 152v208C128 373.3 138.8 384 152 384s24-10.75 24-24V288h45.97l62.63 86.11C289.3 380.6 296.6 384 304 384c4.875 0 9.812-1.484 14.09-4.594c10.72-7.797 13.09-22.8 5.281-33.52l-44.77-61.55C311.7 274.5 336 244.2 336 208zM256 240H176v-64H256c17.66 0 32 14.36 32 32S273.7 240 256 240z"/></svg>

<svg xmlns="http://www.w3.org/2000/svg" viewBox="0 0 448 512"><!-- Font Awesome Pro 6.0.0-alpha2 by @fontawesome - https://fontawesome.com License - https://fontawesome.com/license (Commercial License) --><path d="M384 32H64C28.654 32 0 60.654 0 96V416C0 451.346 28.654 480 64 480H384C419.346 480 448 451.346 448 416V96C448 60.654 419.346 32 384 32ZM400 416C400 424.822 392.822 432 384 432H64C55.178 432 48 424.822 48 416V96C48 87.178 55.178 80 64 80H384C392.822 80 400 87.178 400 96V416ZM336 208C336 163.891 300.125 128 256 128H152C138.75 128 128 138.75 128 152V360C128 373.25 138.75 384 152 384S176 373.25 176 360V288H221.969L284.594 374.109C289.281 380.578 296.594 384 304.031 384C308.906 384 313.844 382.516 318.125 379.406C328.844 371.609 331.219 356.609 323.406 345.891L278.641 284.338C311.688 274.5 336 244.195 336 208ZM256 240H176V176H256C273.656 176 288 190.359 288 208S273.656 240 256 240Z"/></svg>
